X: 38547
T: Steve And Marian's
R: hornpipe
M: 4/4
K: Gmajor
|:Gz GF GABc|dGeg fdcA|GGGF Gz BA|G2 Ac BGEG|
Dz GF GABc|dGeg fdcA|G2 g2 fdcA|ABGz G2 ef:|
|:g2 fd g2 fd|g2 fd dBAB|cABA B/c/d cB|G2 B/c/d BGEG|
Dz Gz GABc|dGeg fdcA|G2 g2 fdcA|ABGz G2 z2:|

